bernoullicharts/1_5_x__bits.svg

<?xml version="1.0" encoding="utf-8" standalone="no"?>
<!DOCTYPE svg PUBLIC "-//W3C//DTD SVG 1.1//EN"
  "http://www.w3.org/Graphics/SVG/1.1/DTD/svg11.dtd">
<!-- Created with matplotlib (https://matplotlib.org/) -->
<svg height="345.6pt" version="1.1" viewBox="0 0 460.8 345.6" width="460.8pt" xmlns="http://www.w3.org/2000/svg" xmlns:xlink="http://www.w3.org/1999/xlink">
 <defs>
  <style type="text/css">
*{stroke-linecap:butt;stroke-linejoin:round;}
  </style>
 </defs>
 <g id="figure_1">
  <g id="patch_1">
   <path d="M 0 345.6 
L 460.8 345.6 
L 460.8 0 
L 0 0 
z
" style="fill:#ffffff;"/>
  </g>
  <g id="axes_1">
   <g id="patch_2">
    <path d="M 57.6 307.584 
L 414.72 307.584 
L 414.72 41.472 
L 57.6 41.472 
z
" style="fill:#ffffff;"/>
   </g>
   <g id="matplotlib.axis_1">
    <g id="xtick_1">
     <g id="line2d_1">
      <defs>
       <path d="M 0 0 
L 0 3.5 
" id="m1d84a2412f" style="stroke:#000000;stroke-width:0.8;"/>
      </defs>
      <g>
       <use style="stroke:#000000;stroke-width:0.8;" x="73.800255" xlink:href="#m1d84a2412f" y="307.584"/>
      </g>
     </g>
     <g id="text_1">
      <text style="font-family:DejaVu Sans;font-size:10px;font-style:normal;font-weight:normal;text-anchor:middle;" transform="rotate(-0, 73.800255, 322.182437)" x="73.800255" y="322.182437">0.0</text>
     </g>
    </g>
    <g id="xtick_2">
     <g id="line2d_2">
      <g>
       <use style="stroke:#000000;stroke-width:0.8;" x="138.744153" xlink:href="#m1d84a2412f" y="307.584"/>
      </g>
     </g>
     <g id="text_2">
      <text style="font-family:DejaVu Sans;font-size:10px;font-style:normal;font-weight:normal;text-anchor:middle;" transform="rotate(-0, 138.744153, 322.182437)" x="138.744153" y="322.182437">0.2</text>
     </g>
    </g>
    <g id="xtick_3">
     <g id="line2d_3">
      <g>
       <use style="stroke:#000000;stroke-width:0.8;" x="203.688051" xlink:href="#m1d84a2412f" y="307.584"/>
      </g>
     </g>
     <g id="text_3">
      <text style="font-family:DejaVu Sans;font-size:10px;font-style:normal;font-weight:normal;text-anchor:middle;" transform="rotate(-0, 203.688051, 322.182437)" x="203.688051" y="322.182437">0.4</text>
     </g>
    </g>
    <g id="xtick_4">
     <g id="line2d_4">
      <g>
       <use style="stroke:#000000;stroke-width:0.8;" x="268.631949" xlink:href="#m1d84a2412f" y="307.584"/>
      </g>
     </g>
     <g id="text_4">
      <text style="font-family:DejaVu Sans;font-size:10px;font-style:normal;font-weight:normal;text-anchor:middle;" transform="rotate(-0, 268.631949, 322.182437)" x="268.631949" y="322.182437">0.6</text>
     </g>
    </g>
    <g id="xtick_5">
     <g id="line2d_5">
      <g>
       <use style="stroke:#000000;stroke-width:0.8;" x="333.575847" xlink:href="#m1d84a2412f" y="307.584"/>
      </g>
     </g>
     <g id="text_5">
      <text style="font-family:DejaVu Sans;font-size:10px;font-style:normal;font-weight:normal;text-anchor:middle;" transform="rotate(-0, 333.575847, 322.182437)" x="333.575847" y="322.182437">0.8</text>
     </g>
    </g>
    <g id="xtick_6">
     <g id="line2d_6">
      <g>
       <use style="stroke:#000000;stroke-width:0.8;" x="398.519745" xlink:href="#m1d84a2412f" y="307.584"/>
      </g>
     </g>
     <g id="text_6">
      <text style="font-family:DejaVu Sans;font-size:10px;font-style:normal;font-weight:normal;text-anchor:middle;" transform="rotate(-0, 398.519745, 322.182437)" x="398.519745" y="322.182437">1.0</text>
     </g>
    </g>
    <g id="text_7">
     <text style="font-family:DejaVu Sans;font-size:10px;font-style:normal;font-weight:normal;text-anchor:middle;" transform="rotate(-0, 236.16, 335.860562)" x="236.16" y="335.860562">Probability</text>
    </g>
   </g>
   <g id="matplotlib.axis_2">
    <g id="ytick_1">
     <g id="line2d_7">
      <defs>
       <path d="M 0 0 
L -3.5 0 
" id="m147ce46f7f" style="stroke:#000000;stroke-width:0.8;"/>
      </defs>
      <g>
       <use style="stroke:#000000;stroke-width:0.8;" x="57.6" xlink:href="#m147ce46f7f" y="279.502097"/>
      </g>
     </g>
     <g id="text_8">
      <text style="font-family:DejaVu Sans;font-size:10px;font-style:normal;font-weight:normal;text-anchor:end;" transform="rotate(-0, 50.6, 283.301316)" x="50.6" y="283.301316">4.0</text>
     </g>
    </g>
    <g id="ytick_2">
     <g id="line2d_8">
      <g>
       <use style="stroke:#000000;stroke-width:0.8;" x="57.6" xlink:href="#m147ce46f7f" y="226.215753"/>
      </g>
     </g>
     <g id="text_9">
      <text style="font-family:DejaVu Sans;font-size:10px;font-style:normal;font-weight:normal;text-anchor:end;" transform="rotate(-0, 50.6, 230.014972)" x="50.6" y="230.014972">4.2</text>
     </g>
    </g>
    <g id="ytick_3">
     <g id="line2d_9">
      <g>
       <use style="stroke:#000000;stroke-width:0.8;" x="57.6" xlink:href="#m147ce46f7f" y="172.92941"/>
      </g>
     </g>
     <g id="text_10">
      <text style="font-family:DejaVu Sans;font-size:10px;font-style:normal;font-weight:normal;text-anchor:end;" transform="rotate(-0, 50.6, 176.728628)" x="50.6" y="176.728628">4.4</text>
     </g>
    </g>
    <g id="ytick_4">
     <g id="line2d_10">
      <g>
       <use style="stroke:#000000;stroke-width:0.8;" x="57.6" xlink:href="#m147ce46f7f" y="119.643066"/>
      </g>
     </g>
     <g id="text_11">
      <text style="font-family:DejaVu Sans;font-size:10px;font-style:normal;font-weight:normal;text-anchor:end;" transform="rotate(-0, 50.6, 123.442285)" x="50.6" y="123.442285">4.6</text>
     </g>
    </g>
    <g id="ytick_5">
     <g id="line2d_11">
      <g>
       <use style="stroke:#000000;stroke-width:0.8;" x="57.6" xlink:href="#m147ce46f7f" y="66.356722"/>
      </g>
     </g>
     <g id="text_12">
      <text style="font-family:DejaVu Sans;font-size:10px;font-style:normal;font-weight:normal;text-anchor:end;" transform="rotate(-0, 50.6, 70.155941)" x="50.6" y="70.155941">4.8</text>
     </g>
    </g>
    <g id="text_13">
     <text style="font-family:DejaVu Sans;font-size:10px;font-style:normal;font-weight:normal;text-anchor:middle;" transform="rotate(-90, 28.617187, 174.528)" x="28.617187" y="174.528">Average Bits Consumed Per Call</text>
    </g>
   </g>
   <g id="line2d_12">
    <path clip-path="url(#p969664224a)" d="M 73.832727 134.563242 
L 77.112066 88.736987 
L 80.391405 81.809762 
L 83.670744 53.568 
L 86.950083 68.488176 
L 90.229421 61.560952 
L 93.50876 89.26985 
L 96.788099 106.854344 
L 100.067438 153.746326 
L 103.346777 73.816811 
L 106.626116 96.197075 
L 109.905455 59.962361 
L 113.184793 73.283947 
L 116.464132 88.736987 
L 119.743471 145.220511 
L 123.02281 77.546855 
L 126.302149 118.044476 
L 129.581488 152.147736 
L 132.860826 116.445885 
L 136.140165 120.708793 
L 139.419504 105.255753 
L 142.698843 126.037427 
L 145.978182 99.394256 
L 149.257521 102.058573 
L 152.53686 129.767471 
L 155.816198 121.241656 
L 159.095537 159.07496 
L 162.374876 87.138396 
L 165.654215 108.985797 
L 168.933554 89.802714 
L 172.212893 90.335577 
L 175.492231 206.499806 
L 178.77157 75.948264 
L 182.050909 200.638308 
L 185.330248 130.300335 
L 188.609587 215.025621 
L 191.888926 194.776811 
L 195.168264 133.497515 
L 198.447603 165.469322 
L 201.726942 162.272141 
L 205.006281 139.359013 
L 208.28562 199.572581 
L 211.564959 196.375401 
L 214.844298 203.302626 
L 218.123636 152.680599 
L 221.402975 150.549145 
L 224.682314 180.922361 
L 227.961653 163.337868 
L 231.240992 201.704035 
L 234.520331 169.199366 
L 237.799669 188.915313 
L 241.079008 144.687648 
L 244.358347 163.337868 
L 247.637686 193.711084 
L 250.917025 239.537339 
L 254.196364 193.17822 
L 257.475702 185.185269 
L 260.755041 200.105445 
L 264.03438 197.973991 
L 267.313719 195.309674 
L 270.593058 218.222802 
L 273.872397 221.419982 
L 277.151736 243.800247 
L 280.431074 239.004476 
L 283.710413 225.68289 
L 286.989752 207.565533 
L 290.269091 186.250996 
L 293.54843 175.593727 
L 296.827769 184.652405 
L 300.107107 212.894167 
L 303.386446 188.915313 
L 306.665785 214.492758 
L 309.945124 244.865974 
L 313.224463 210.22985 
L 316.503802 228.88007 
L 319.78314 224.0843 
L 323.062479 221.952846 
L 326.341818 289.626502 
L 329.621157 290.692229 
L 332.900496 216.091348 
L 336.179835 231.011524 
L 339.459174 270.443419 
L 342.738512 281.633551 
L 346.017851 282.699278 
L 349.29719 230.478661 
L 352.576529 276.304916 
L 355.855868 268.844828 
L 359.135207 278.43637 
L 362.414545 232.610115 
L 365.693884 295.488 
L 368.973223 250.194608 
L 372.252562 262.450467 
L 375.531901 284.830731 
L 378.81124 285.896458 
L 382.090579 281.633551 
L 385.369917 265.114784 
L 388.649256 293.356546 
L 391.928595 290.159366 
L 395.207934 220.354256 
L 398.487273 263.516194 
" style="fill:none;stroke:#1f77b4;stroke-linecap:square;stroke-width:1.5;"/>
   </g>
   <g id="patch_3">
    <path d="M 57.6 307.584 
L 57.6 41.472 
" style="fill:none;stroke:#000000;stroke-linecap:square;stroke-linejoin:miter;stroke-width:0.8;"/>
   </g>
   <g id="patch_4">
    <path d="M 414.72 307.584 
L 414.72 41.472 
" style="fill:none;stroke:#000000;stroke-linecap:square;stroke-linejoin:miter;stroke-width:0.8;"/>
   </g>
   <g id="patch_5">
    <path d="M 57.6 307.584 
L 414.72 307.584 
" style="fill:none;stroke:#000000;stroke-linecap:square;stroke-linejoin:miter;stroke-width:0.8;"/>
   </g>
   <g id="patch_6">
    <path d="M 57.6 41.472 
L 414.72 41.472 
" style="fill:none;stroke:#000000;stroke-linecap:square;stroke-linejoin:miter;stroke-width:0.8;"/>
   </g>
   <g id="text_14">
    <text style="font-family:DejaVu Sans;font-size:12px;font-style:normal;font-weight:normal;text-anchor:middle;" transform="rotate(-0, 236.16, 35.472)" x="236.16" y="35.472">Avg. Bits Consumed by 1/(5+x) Algorithm</text>
   </g>
   <g id="legend_1">
    <g id="patch_7">
     <path d="M 337.524688 64.150125 
L 407.72 64.150125 
Q 409.72 64.150125 409.72 62.150125 
L 409.72 48.472 
Q 409.72 46.472 407.72 46.472 
L 337.524688 46.472 
Q 335.524688 46.472 335.524688 48.472 
L 335.524688 62.150125 
Q 335.524688 64.150125 337.524688 64.150125 
z
" style="fill:#ffffff;opacity:0.8;stroke:#cccccc;stroke-linejoin:miter;"/>
    </g>
    <g id="line2d_13">
     <path d="M 339.524688 54.570438 
L 359.524688 54.570438 
" style="fill:none;stroke:#1f77b4;stroke-linecap:square;stroke-width:1.5;"/>
    </g>
    <g id="line2d_14"/>
    <g id="text_15">
     <text style="font-family:DejaVu Sans;font-size:10px;font-style:normal;font-weight:normal;text-anchor:start;" transform="rotate(-0, 367.524688, 58.070438)" x="367.524688" y="58.070438">1/(5+x)</text>
    </g>
   </g>
  </g>
 </g>
 <defs>
  <clipPath id="p969664224a">
   <rect height="266.112" width="357.12" x="57.6" y="41.472"/>
  </clipPath>
 </defs>
</svg>

<svg height="460.8" viewBox="0 0 460.8 345.6" width="614.4" xmlns="http://www.w3.org/2000/svg" xmlns:xlink="http://www.w3.org/1999/xlink"><defs><style>*{stroke-linecap:butt;stroke-linejoin:round}</style></defs><g id="figure_1"><path d="M0 345.6h460.8V0H0z" fill="#fff" id="patch_1"/><g id="axes_1"><path d="M57.6 307.584h357.12V41.472H57.6z" fill="#fff" id="patch_2"/><g id="matplotlib.axis_1"><g id="xtick_1"><g id="line2d_1"><defs><path d="M0 0v3.5" id="m1d84a2412f" stroke="#000" stroke-width=".8"/></defs><use x="73.8" xlink:href="#m1d84a2412f" y="307.584" stroke="#000" stroke-width=".8"/></g><text x="73.8" y="322.182" font-family="DejaVu Sans" font-size="10" font-weight="400" text-anchor="middle" id="text_1">0.0</text></g><g id="xtick_2"><use x="138.744" xlink:href="#m1d84a2412f" y="307.584" stroke="#000" stroke-width=".8" id="line2d_2"/><text x="138.744" y="322.182" font-family="DejaVu Sans" font-size="10" font-weight="400" text-anchor="middle" id="text_2">0.2</text></g><g id="xtick_3"><use x="203.688" xlink:href="#m1d84a2412f" y="307.584" stroke="#000" stroke-width=".8" id="line2d_3"/><text x="203.688" y="322.182" font-family="DejaVu Sans" font-size="10" font-weight="400" text-anchor="middle" id="text_3">0.4</text></g><g id="xtick_4"><use x="268.632" xlink:href="#m1d84a2412f" y="307.584" stroke="#000" stroke-width=".8" id="line2d_4"/><text x="268.632" y="322.182" font-family="DejaVu Sans" font-size="10" font-weight="400" text-anchor="middle" id="text_4">0.6</text></g><g id="xtick_5"><use x="333.576" xlink:href="#m1d84a2412f" y="307.584" stroke="#000" stroke-width=".8" id="line2d_5"/><text x="333.576" y="322.182" font-family="DejaVu Sans" font-size="10" font-weight="400" text-anchor="middle" id="text_5">0.8</text></g><g id="xtick_6"><use x="398.52" xlink:href="#m1d84a2412f" y="307.584" stroke="#000" stroke-width=".8" id="line2d_6"/><text x="398.52" y="322.182" font-family="DejaVu Sans" font-size="10" font-weight="400" text-anchor="middle" id="text_6">1.0</text></g><text x="236.16" y="335.861" font-family="DejaVu Sans" font-size="10" font-weight="400" text-anchor="middle" id="text_7">Probability</text></g><g id="matplotlib.axis_2"><g id="ytick_1"><g id="line2d_7"><defs><path d="M0 0h-3.5" id="m147ce46f7f" stroke="#000" stroke-width=".8"/></defs><use x="57.6" xlink:href="#m147ce46f7f" y="279.502" stroke="#000" stroke-width=".8"/></g><text x="50.6" y="283.301" font-family="DejaVu Sans" font-size="10" font-weight="400" text-anchor="end" id="text_8">4.0</text></g><g id="ytick_2"><use x="57.6" xlink:href="#m147ce46f7f" y="226.216" stroke="#000" stroke-width=".8" id="line2d_8"/><text x="50.6" y="230.015" font-family="DejaVu Sans" font-size="10" font-weight="400" text-anchor="end" id="text_9">4.2</text></g><g id="ytick_3"><use x="57.6" xlink:href="#m147ce46f7f" y="172.929" stroke="#000" stroke-width=".8" id="line2d_9"/><text x="50.6" y="176.729" font-family="DejaVu Sans" font-size="10" font-weight="400" text-anchor="end" id="text_10">4.4</text></g><g id="ytick_4"><use x="57.6" xlink:href="#m147ce46f7f" y="119.643" stroke="#000" stroke-width=".8" id="line2d_10"/><text x="50.6" y="123.442" font-family="DejaVu Sans" font-size="10" font-weight="400" text-anchor="end" id="text_11">4.6</text></g><g id="ytick_5"><use x="57.6" xlink:href="#m147ce46f7f" y="66.357" stroke="#000" stroke-width=".8" id="line2d_11"/><text x="50.6" y="70.156" font-family="DejaVu Sans" font-size="10" font-weight="400" text-anchor="end" id="text_12">4.8</text></g><text transform="rotate(-90 28.617 174.528)" x="28.617" y="174.528" font-family="DejaVu Sans" font-size="10" font-weight="400" text-anchor="middle" id="text_13">Average Bits Consumed Per Call</text></g><path clip-path="url(#p969664224a)" d="M73.833 134.563l3.28-45.826 3.278-6.927 3.28-28.242 3.28 14.92 3.278-6.927 3.28 27.709 3.28 17.584 3.278 46.892 3.28-79.93 3.28 22.381 3.278-36.235 3.28 13.322 3.28 15.453 3.278 56.484 3.28-67.674 3.28 40.497 3.278 34.104 3.28-35.702 3.28 4.263 3.279-15.453 3.279 20.781 3.28-26.643 3.279 2.665 3.279 27.708 3.28-8.525 3.279 37.833 3.279-71.937 3.28 21.848 3.279-19.183 3.279.533 3.28 116.164 3.279-130.552 3.279 124.69 3.28-70.338 3.279 84.726 3.279-20.25 3.28-61.278 3.279 31.971 3.279-3.197 3.28-22.913 3.279 60.214 3.279-3.198 3.28 6.928 3.279-50.622 3.279-2.132 3.28 30.373 3.279-17.584 3.279 38.366 3.28-32.505 3.279 19.716 3.279-44.227 3.28 18.65 3.279 30.373 3.279 45.826 3.28-46.359 3.279-7.993 3.279 14.92 3.28-2.131 3.279-2.664 3.28 22.913 3.278 3.197 3.28 22.38 3.28-4.796 3.278-13.321 3.28-18.117 3.28-21.315 3.278-10.657 3.28 9.058 3.28 28.242 3.278-23.979 3.28 25.578 3.28 30.373 3.278-34.636 3.28 18.65 3.28-4.796 3.278-2.131 3.28 67.674 3.28 1.065 3.278-74.6 3.28 14.92 3.28 39.431 3.279 11.19 3.279 1.066 3.28-52.22 3.279 45.826 3.279-7.46 3.28 9.591 3.279-45.826 3.279 62.878 3.28-45.293 3.279 12.255 3.279 22.38 3.28 1.066 3.279-4.262 3.279-16.52 3.28 28.243 3.279-3.198 3.279-69.805 3.28 43.162" fill="none" stroke="#1f77b4" stroke-linecap="square" stroke-width="1.5" id="line2d_12"/><path d="M57.6 307.584V41.472" fill="none" stroke="#000" stroke-linecap="square" stroke-width=".8" id="patch_3"/><path d="M414.72 307.584V41.472" fill="none" stroke="#000" stroke-linecap="square" stroke-width=".8" id="patch_4"/><path d="M57.6 307.584h357.12" fill="none" stroke="#000" stroke-linecap="square" stroke-width=".8" id="patch_5"/><path d="M57.6 41.472h357.12" fill="none" stroke="#000" stroke-linecap="square" stroke-width=".8" id="patch_6"/><text x="236.16" y="35.472" font-family="DejaVu Sans" font-size="12" font-weight="400" text-anchor="middle" id="text_14">Avg. Bits Consumed by 1/(5+x) Algorithm</text><g id="legend_1"><path d="M337.525 64.15h70.195q2 0 2-2V48.472q0-2-2-2h-70.195q-2 0-2 2V62.15q0 2 2 2z" fill="#fff" opacity=".8" stroke="#ccc" id="patch_7"/><path d="M339.525 54.57h20" fill="none" stroke="#1f77b4" stroke-linecap="square" stroke-width="1.5" id="line2d_13"/><text x="367.525" y="58.07" font-family="DejaVu Sans" font-size="10" font-weight="400" id="text_15">1/(5+x)</text></g></g></g><defs><clipPath id="p969664224a"><path d="M57.6 41.472h357.12v266.112H57.6z"/></clipPath></defs></svg>
